X: 27926
T: Mountain Stream, The
R: barndance
M: 4/4
K: Gmajor
d2 d>e d>B G2|A2 A>B A>G E2|D2 D>G E2 E>G|D2 D>G E>F (3GAB|
d2 (3cde d>B G2|A2 A>B A>GE>G|D2 D>E G2 (3ABc|d>BA>B G2:|
d2 B>d g2 f>e|d2 B>G A2 (3GFE|(3DDD D>G (3EEE E>G|(3DDD D>G E>FG>B|
(3ded (3Bcd g2 f>e|(3ded B>G A2 G>E|D2 D>E G2 (3ABc|d>B (3ABA G2:|
|:B2 B>A G2 G>E|D2 B>G (3ABA G>E|D2 D>G E2 E>G|D2 D>G E>FG>A|
(3BcB (3cBA G2 G>E|D2 B>G A2 B>d|(3efg e>g e>dB>c|(3dcB A>B G2:|

